!!!COM: Algernon Cadwallader
!!!OTL: Spit Fountain
!!!YEAR: 2011
**kern
*A:
*
*
*M(4/4)
=1=1
4DD
4e
4c#
4A
=2=2
8EE
8FF#
8AA
8BB
8E
8G#
4A
=3=3
4DD
4e
4c#
4A
=4=4
8EE
8FF#
8AA
8BB
8E
8G#
8A
8e
=5=5
4DD
4e
4c#
4A
=6=6
8EE
8FF#
8AA
8BB
8E
8G#
4A
=7=7
4DD
4e
4c#
4A
=8=8
8EE
8FF#
8AA
8BB
8E
8G#
8A
8e
=9=9
4DD
4e
4c#
4A
=10=10
8EE
8FF#
8AA
8BB
8E
8G#
4A
=11=11
4DD
4e
4.c#
16DD
16EE
=12=12
8FF#
8AA
8BB
8C#
8E
8A
8B
8A
*-
